svg/split.svg

<?xml version="1.0" encoding="UTF-8"?>
<svg xmlns="http://www.w3.org/2000/svg" xmlns:xlink="http://www.w3.org/1999/xlink" width="32" height="32" viewBox="0 0 32 32">
<path fill-rule="nonzero" fill="rgb(0%, 0%, 0%)" fill-opacity="1" d="M 0.03125 26.335938 C -0.03125 25.957031 0.0117188 25.570312 0.160156 25.214844 C 0.308594 24.851562 0.542969 24.566406 0.863281 24.351562 C 1.183594 24.136719 1.566406 24.019531 2.015625 24 L 4 24 L 4 20 C 4 18.355469 4.585938 16.949219 5.761719 15.777344 C 6.933594 14.601562 8.351562 14.015625 10.015625 14.015625 L 12 14.015625 C 12.554688 14.015625 13.023438 13.824219 13.40625 13.441406 C 13.792969 13.054688 13.996094 12.574219 14.015625 12 L 14.015625 2.015625 C 14.015625 1.523438 14.144531 1.109375 14.398438 0.769531 C 14.640625 0.433594 15.011719 0.210938 15.425781 0.160156 C 15.804688 0.0976562 16.195312 0.0976562 16.574219 0.160156 C 16.917969 0.222656 17.257812 0.425781 17.601562 0.769531 C 17.941406 1.109375 18.078125 1.523438 18.015625 2.015625 L 18.015625 12 C 18.015625 12.554688 18.207031 13.035156 18.59375 13.441406 C 18.953125 13.835938 19.46875 14.046875 20 14.015625 L 22.015625 14.015625 C 23.660156 14.015625 25.066406 14.601562 26.238281 15.777344 C 27.414062 16.949219 28 18.355469 28 20 L 28 24 L 30.015625 24 C 30.441406 24 30.828125 24.128906 31.167969 24.382812 C 31.507812 24.640625 31.742188 24.929688 31.871094 25.246094 C 32 25.566406 32.03125 25.941406 31.96875 26.367188 C 31.914062 26.773438 31.722656 27.144531 31.425781 27.425781 L 27.425781 31.425781 C 26.996094 31.828125 26.515625 32.03125 25.984375 32.03125 C 25.449219 32.03125 24.992188 31.828125 24.609375 31.425781 L 20.609375 27.425781 C 20.300781 27.148438 20.097656 26.777344 20.03125 26.367188 C 19.96875 25.976562 20.011719 25.578125 20.160156 25.214844 C 20.308594 24.851562 20.542969 24.566406 20.863281 24.351562 C 21.183594 24.136719 21.566406 24.019531 22.015625 24 L 24 24 L 24 20 C 24.011719 19.472656 23.804688 18.960938 23.425781 18.59375 C 23.058594 18.214844 22.546875 18.003906 22.015625 18.015625 L 20 18.015625 C 18.484375 18.015625 17.152344 17.492188 16 16.449219 C 14.847656 17.492188 13.515625 18.015625 12 18.015625 L 10.015625 18.015625 C 9.460938 18.015625 8.980469 18.207031 8.574219 18.59375 C 8.179688 18.953125 7.972656 19.46875 8 20 L 8 24 L 10.015625 24 C 10.441406 24 10.828125 24.128906 11.167969 24.382812 C 11.507812 24.640625 11.742188 24.929688 11.871094 25.246094 C 12 25.566406 12.03125 25.941406 11.96875 26.367188 C 11.914062 26.773438 11.722656 27.144531 11.425781 27.425781 L 7.425781 31.425781 C 6.996094 31.828125 6.515625 32.03125 5.984375 32.03125 C 5.449219 32.03125 4.980469 31.828125 4.574219 31.425781 L 0.574219 27.425781 C 0.257812 27.105469 0.0742188 26.742188 0.03125 26.335938 "/>
</svg>

<svg role="img" viewBox="0 0 32 32" height="32" width="32" xmlns="http://www.w3.org/2000/svg"><path d="M.031 26.336a2.04 2.04 0 0 1 .13-1.121c.148-.363.382-.649.702-.863.32-.215.703-.332 1.153-.352H4v-4c0-1.645.586-3.05 1.762-4.223 1.172-1.175 2.59-1.761 4.254-1.761H12c.555 0 1.023-.192 1.406-.575.387-.386.59-.867.61-1.441V2.016c0-.493.129-.907.382-1.246a1.49 1.49 0 0 1 1.028-.61 3.54 3.54 0 0 1 1.148 0c.344.063.684.266 1.028.61.34.34.476.753.414 1.246V12c0 .555.191 1.035.578 1.441.36.395.875.606 1.406.575h2.016c1.644 0 3.05.586 4.222 1.761C27.414 16.95 28 18.355 28 20v4h2.016c.425 0 .812.129 1.152.383.34.258.574.547.703.863.129.32.16.695.098 1.121a1.782 1.782 0 0 1-.543 1.059l-4 4c-.43.402-.91.605-1.442.605-.535 0-.992-.203-1.375-.605l-4-4a1.807 1.807 0 0 1-.578-1.059c-.062-.39-.02-.789.13-1.152.148-.363.382-.649.702-.863.32-.215.703-.332 1.153-.352H24v-4a1.9 1.9 0 0 0-.574-1.406 1.907 1.907 0 0 0-1.41-.578H20c-1.516 0-2.848-.524-4-1.567-1.152 1.043-2.484 1.567-4 1.567h-1.984c-.555 0-1.036.191-1.442.578-.394.36-.601.875-.574 1.406v4h2.016c.425 0 .812.129 1.152.383.34.258.574.547.703.863.129.32.16.695.098 1.121a1.782 1.782 0 0 1-.543 1.059l-4 4c-.43.402-.91.605-1.442.605-.535 0-1.004-.203-1.41-.605l-4-4c-.316-.32-.5-.684-.543-1.09"/></svg>
